X:1
T:Camden Market, 86.86.88.86
T:Camden Market, 86.86.88.86
T:Daniel Brink Towner, 1899
T:Public Domain Courtesy of the Cyber Hymnal™
C:Daniel Brink Towner, 1899
Z:Public Domain
Z:Courtesy of the Cyber Hymnal™
%%score ( 1 2 ) ( 3 4 )
L:1/8
Q:1/4=90
M:6/8
K:F
V:1 treble 
V:2 treble 
V:3 bass 
V:4 bass 
V:1
 [A,C][A,F][B,G] [CA]2 [CA] | ([CA][A,F])[B,G] [CA]2 [CA] | [A,C] [CA]2 (GC)[B,G] | %3
 [A,F]3- [A,F]2 [A,F] | [DB]2 [Fc] [Bd]2 [Bd] | ([Bd][Ac])[^G=B] [Ac]2 [FA] | [DF]2 [Ec] (dG)[Fd] | %7
 [Ec]3- [Ec]2 [B,C] | [B,E]2 [EG] [GB]2 [GB] | ([FA]>[GB]) ([Ac]/[GB]/) [FA]2 [B,C] | %10
 [B,E]2 [EG] [GB]2 [GB] | [FA]>[GB] ([Ac]/[GB]/) [FA]2 [FA] | [Ac]2 [Ac] [FA][_EG][EF] | %13
 (_EG)[DF] [Fd]3 | [Ac][FA][A,F] !fermata![B,C]2 [B,G] | [A,F]3- [A,F]2 |] %16
V:2
 x6 | x6 | x3 B,2 x | x6 | x6 | x6 | x3 F2 x | x6 | x6 | x6 | x6 | x6 | x6 | _E2 x4 | x6 | x5 |] %16
V:3
 F,F,F, F,2 F, | F,2 F, F,2 F, | F,2 F, [C,E,]2 [C,E,] | [F,,F,]3- [F,,F,]2 F, | %4
 [B,,F,]2 [B,,F,] [B,,F,]2 [B,,F,] | F,2 F, F,2 [F,C] | [G,C]2 G, [G,=B,]2 G, | %7
 [C,G,]3- [C,G,]2 [E,G,] | [C,G,]2 [C,B,] [C,C]2 [C,C] | [F,C]2 [F,C] [F,C]2 [C,E,] | %10
 [C,G,]2 [C,B,] [C,C]2 [C,C] | [F,C]2 [F,C] [F,C]2 [F,C] | F,2 F, [F,C]2 [F,A,] | %13
 [F,A,]2 [F,B,] [B,,B,]3 | [A,C][F,A,][A,,F,] !fermata![C,G,]2 [C,E,] | [F,,F,]3- [F,,F,]2 |] %16
V:4
 F,F,F, F,2 F, | F,2 F, F,2 F, | F,2 F, x3 | x5 F, | x6 | F,2 F, F,2 x | x2 G, x G, x | x6 | x6 | %9
 x6 | x6 | x6 | F,2 F, x3 | x6 | x6 | x5 |] %16

